X:414
T:Tommy Mulhaire's
T:Castletown Conners, The
T:Castletown Connors, The
R:jig
C:Martin Mulhaire
H:The "Castletown" title comes from a confusion of two tunes recorded in a medley
Z:hn-jig-414
M:6/8
L:1/8
K:G
EDE G2A | BeB dBd | edB GAB | ABG AGE |
EDE G2A | BeB dBd | edB GAB |1 AGF G2E :|2 AGF G2B ||
|: d2d def | g2e fdB | ~A3 ABd | egf e2f |
g2e fed | edB ~g3 | edB AGA |1 AGF G2B :|2 AGF G2E ||
P:variations
|: EDE G2A | B2e dB/c/d | edB GAB | ABA AGE |
EDE G2A | Bed Bcd | edB GAB |1 AGF G2E :|2 AGF G2B ||
|: ded def | g2e fed | ABA ABd | egf e2f |
gfe fed | edB g2f | edB AGA | BGF G2B :|2 BGF G2E ||

